archdroid-icon-theme/Archdroid-Purple/apps/scalable/thunar.svg

<svg fill="#9C27B0" height="48" viewBox="0 0 48 48" width="48" xmlns="http://www.w3.org/2000/svg"><path d="m12 6c-2.216 0-4 1.784-4 4v12c0 2.216 1.784 4 4 4h8v12 2c0 1.108.892 2 2 2h4c1.108 0 2-.892 2-2v-4-10h8c2.216 0 4-1.784 4-4v-12c0-2.216-1.784-4-4-4zm24 4.369141-1.058594 1.111328c-1.106461 1.162726-1.954974 2.653717-3.279297 4.40039-.789681 1.041524-2.091857 1.860159-3.722656 2.501954 0 0 .171825 1.843108-.394531 3.273437-.607008 1.532989-2.076835 2.448124-2.580078 3.541016l-.371094.802734-.697266-.591797c-.61628-.521886-2.116852-1.432603-3.11914-2.9375-.631879-.948739-.841828-2.242802-.75-3.685547-1.696019-.479612-3.071436-1.191355-3.947266-2.189453-1.466871-1.671652-2.125576-3.62963-3.189453-4.894531l-.890625-1.052734 1.416016.044921c2.408487.078943 5.009523.013357 7.429687.603516.628515.153262 1.206675.399936 1.785156.693359-.688382.441084-1.116707.891028-1.382812 1.246094-.00543.007247-.7411-.351842-1.148438-.451172-1.773409-.432445-2.620318-.026388-4.617187-.080078.80709 1.276158.672579 1.999737 1.630859 3.091797.727558.829128 2.481645 1.34331 4.054688 1.871094 1.573042.527784 3.912138.244831 4.207031.179687l-.050781 1.294922c-.389822.088246-.829772.160699-1.31836.185547-1.465763.074544-2.290621-.268066-2.386718-.310547-.056063 1.116797.203802 2.079393.701172 2.826172.621497.933154 2.078537 1.572966 2.255859 1.648438.699973-1.045634 1.341066-1.303707 1.814453-2.404297.286989-.667233.821078-1.66931.060547-4.041016-.473689-1.477196-1.084268-1.834534-1.707031-2.224609l1.15625-.882813c.372296.249714.795691.60284 1.138672 1.039063.860891 1.094931.801725 2.078308.791015 2.195312 0 0 1.622763-1.236439 2.289063-2.115234.86411-1.139688 1.180412-1.882266 1.982422-3.119141-1.7797.108973-2.939174-.299817-4.845704.285156-.51557.15819-1.590266.806521-2.867187 1.910157-1.27692 1.103637-1.908902 1.78435-2.240234 2.503906l-1.642579-.386719c.019099-.045967 1.91651-3.357657 3.820313-4.222656 1.903805-.864996 8.069966-1.476989 10.058594-1.578125z" fill="#9C27B0" stroke-width=".5"/></svg>

<svg fill="#9C27B0" height="48" version="1.1" viewBox="0 0 48 48" width="48" xmlns="http://www.w3.org/2000/svg" xmlns:xlink="http://www.w3.org/1999/xlink"><defs><linearGradient id="a"><stop offset="0" stop-color="#eeeeec"/><stop offset="1" stop-color="#eeeeec" stop-opacity="0"/></linearGradient><linearGradient id="b" gradientTransform="translate(-110.111885 -10.697609)" gradientUnits="userSpaceOnUse" x1="21.664345" x2="29" xlink:href="#a" y1="-.02548" y2="15.22452"/></defs><path d="M12 6C9.784 6 8 7.784 8 10L8 22C8 24.216 9.784 26 12 26L20 26 20 38 20 40C20 41.108 20.892 42 22 42L26 42C27.108 42 28 41.108 28 40L28 36 28 26 36 26C38.216 26 40 24.216 40 22L40 10C40 7.784 38.216 6 36 6L12 6zM36 10.369141L34.941406 11.480469C33.834945 12.643195 32.986432 14.134186 31.662109 15.880859 30.872428 16.922383 29.570252 17.741018 27.939453 18.382813 27.939453 18.382813 28.111278 20.225921 27.544922 21.65625 26.937914 23.189239 25.468087 24.104374 24.964844 25.197266L24.59375 26 23.896484 25.408203C23.280204 24.886317 21.779632 23.9756 20.777344 22.470703 20.145465 21.521964 19.935516 20.227901 20.027344 18.785156 18.331325 18.305544 16.955908 17.593801 16.080078 16.595703 14.613207 14.924051 13.954502 12.966073 12.890625 11.701172L12 10.648438 13.416016 10.693359C15.824503 10.772302 18.425539 10.706716 20.845703 11.296875 21.474218 11.450137 22.052378 11.696811 22.630859 11.990234 21.942477 12.431318 21.514152 12.881262 21.248047 13.236328 21.242617 13.243575 20.506947 12.884486 20.099609 12.785156 18.3262 12.352711 17.479291 12.758768 15.482422 12.705078 16.289512 13.981236 16.155001 14.704815 17.113281 15.796875 17.840839 16.626003 19.594926 17.140185 21.167969 17.667969 22.741011 18.195753 25.080107 17.9128 25.375 17.847656L25.324219 19.142578C24.934397 19.230824 24.494447 19.303277 24.005859 19.328125 22.540096 19.402669 21.715238 19.060059 21.619141 19.017578 21.563078 20.134375 21.822943 21.096971 22.320313 21.84375 22.94181 22.776904 24.39885 23.416716 24.576172 23.492188 25.276145 22.446554 25.917238 22.188481 26.390625 21.087891 26.677614 20.420658 27.211703 19.418581 26.451172 17.046875 25.977483 15.569679 25.366904 15.212341 24.744141 14.822266L25.900391 13.939453C26.272687 14.189167 26.696082 14.542293 27.039063 14.978516 27.899954 16.073447 27.840788 17.056824 27.830078 17.173828 27.830078 17.173828 29.452841 15.937389 30.119141 15.058594 30.983251 13.918906 31.299553 13.176328 32.101563 11.939453 30.321863 12.048426 29.162389 11.639636 27.255859 12.224609 26.740289 12.382799 25.665593 13.03113 24.388672 14.134766 23.111752 15.238403 22.47977 15.919116 22.148438 16.638672L20.505859 16.251953C20.524958 16.205986 22.422369 12.894296 24.326172 12.029297 26.229977 11.164301 32.396138 10.552308 34.384766 10.451172L36 10.369141z" fill="#9C27B0" stroke-width=".5"/><path d="m-93.760041 3.62643c1.648156-2.324039 1.648156-6.324039 7.648156-6.324039 6 0 6 4 8 6-3 0-8 0-10-4-2-4 1-6 2-7 1 2 4 3 2 7-2 4-6 4-9.648156 4.324039z" display="none" fill="none" fill-rule="evenodd" stroke="url(#b)"/></svg>
